X:1
T:Title
%%score { 1 | 2 }
L:1/8
M:6/8
K:F
V:1 treble nm="Grand Piano"
V:2 bass 
V:1
 z3 z2[Q:1/4=84] c | c>cc dcA | [EG] F2- F z z | A>GF cBA |[M:5/8] [EG]-[EG]- [EG]3 |[M:1/8] [Ec] | %6
[M:3/4] c>c cd cA | [EG] F3 z2 | A>G F[Ec]- [Ec]/[EG]/[EA] | F6 | [Fd]>[Fd] [Fd][DFB] [Fd]2 | %11
 c>c cA [Ac]2 | [GB]>[GB] [GB]A GF | [Ec]4- [Ec][Gc] | c>c cd cA | [EG][DF] [EG][FA] [Ac]2 | %16
 A>G F[Ec]- [Ec]/[EG]/[EA] |[M:5/8] F-F- F3 |] %18
V:2
 z3 z2 [F,A,F] | [F,A,F]>[F,A,F][F,A,F] [F,B,F][F,A,F][F,CF] | [C,B,] [F,A,]2- [F,A,] z z | %3
 [F,CF]>[F,B,F][F,A,][K:treble] [A,CF][G,CE][K:bass][F,CF] |[M:5/8] [C,C]-[C,C]- [C,C]3 | %5
[M:1/8] [C,B,] |[M:3/4] [F,A,F]>[F,A,F] [F,A,F][F,B,F] [F,A,F][F,CF] | [C,B,] [F,A,]3 z2 | %8
 [F,CF]>[F,B,F] [F,A,][C,G,]- [C,G,]/[C,B,]/[C,C] | [F,A,]6 | [B,,B,]>[B,,B,] [B,,B,]B,, [B,,B,]2 | %11
 [F,A,F]>[F,A,F] [F,A,F][F,CF] [F,C]2 | [E,C]>[E,C] [E,C][F,CF] [E,C][D,=B,D] | %13
 [C,C]4- [C,C][E,B,] | [F,A,F]>[F,A,F] [F,A,F][F,B,F] [F,A,F][F,CF] | %15
 [C,C][C,C] [C,C][F,C] [F,F]2 | [F,CF]>[F,B,F] [F,A,][C,G,]- [C,G,]/[C,B,]/[C,C] | %17
[M:5/8] [F,A,]-[F,A,]- [F,A,]3 |] %18

